icons/lines/broom.svg

<svg xmlns="http://www.w3.org/2000/svg" width="24" height="24" viewBox="0 0 24 24" fill="none" stroke="currentColor" stroke-width="2" stroke-linecap="round" stroke-linejoin="round" >
  <path d="M9.86982 5.66998L6.44982 7.74999L4.88982 5.19C4.31982 4.25 4.61982 3.01 5.55982 2.44C6.49982 1.87 7.73982 2.16998 8.30982 3.10998L9.86982 5.66998Z"/>
  <path d="M11.8201 9.15997L8.66012 11.08C6.82012 12.2 6.26011 14.46 7.15011 16.26L9.20011 20.44C9.86011 21.79 11.4601 22.26 12.7401 21.47L19.1701 17.56C20.4601 16.78 20.7701 15.15 19.8801 13.94L17.1101 10.2C15.9101 8.58001 13.6601 8.03997 11.8201 9.15997Z"/>
  <path d="M10.7564 5.09791L5.63184 8.21851L7.71224 11.6349L12.8368 8.51431L10.7564 5.09791Z"/>
  <path d="M14.3101 16.8101L15.9601 19.5201"/>
  <path d="M11.75 18.37L13.4 21.08"/>
  <path d="M16.8701 15.25L18.5201 17.96"/>
  </svg>

<svg xmlns="http://www.w3.org/2000/svg" width="24" height="24" viewBox="0 0 24 24" fill="none" stroke="currentColor" stroke-width="2" stroke-linecap="round" stroke-linejoin="round">
  <path d="m10.756 5.098-5.124 3.12 2.08 3.417 5.125-3.12z" />
  <path d="m11.75 18.37 1.65 2.71" />
  <path d="m14.31 16.81 1.65 2.71" />
  <path d="m16.87 15.25 1.65 2.71" />
  <path d="M8.66 11.08a4 4 0 0 0-1.51 5.18l2.05 4.18c.66 1.35 2.26 1.82 3.54 1.03l6.43-3.91c1.29-.78 1.6-2.41.71-3.62l-2.77-3.74c-1.2-1.62-3.45-2.16-5.29-1.04z" />
  <path d="M9.87 5.67 6.45 7.75 4.89 5.19a2 2 0 0 1 3.42-2.08z" />
</svg>
